images/client-logos/havan.svg

<svg height="230" viewBox="0 0 400 230" width="400" xmlns="http://www.w3.org/2000/svg"><g fill="#e3e8f0" fill-rule="evenodd"><path d="m187.30315.29527559c-33.956693 2.46062992-62.401575 12.59842521-76.476378 27.16535431-6.299213 6.496063-9.055118 12.5-9.055118 19.6850394-.098426 20.1771653 26.771653 38.7795276 65.944881 45.9645669 11.614174 2.0669292 19.980315 2.7559055 33.661418 2.7559055 13.877953.0984252 21.751968-.5905511 33.661417-2.7559055 25.885827-4.7244094 48.031496-15.1574803 58.759843-27.5590551 7.972441-9.2519685 9.547244-18.7007874 4.724409-28.4448819-9.448819-19.2913386-42.716535-34.0551181-83.169291-36.81102361-5.905512-.39370079-22.34252-.39370079-28.051181 0zm24.704724 4.23228347c35.925197 2.16535433 65.551181 13.77952754 76.574803 30.01968504 2.952756 4.2322835 4.232284 8.4645669 4.232284 13.0905512 0 6.6929134-2.46063 12.1062992-8.366142 18.3070866-19.488189 20.2755905-66.830709 30.511811-109.448819 23.8188976-26.377953-4.1338582-49.015748-14.5669291-59.153543-27.1653543-3.937008-4.8228346-6.200788-10.4330709-6.200788-15.0590551 0-2.2637795.984252-6.5944882 2.066929-9.0551181 5.118111-11.4173229 19.68504-21.2598426 40.846457-27.6574803 17.22441-5.21653548 39.370079-7.48031501 59.448819-6.29921264z"/><path d="m167.322835 16.0433071c-.196851.0984252-.295276.8858268-.295276 1.8700787v1.5748032l2.46063.492126c3.248031.4921259 4.133858.9842519 5.019685 2.4606299l.787402 1.2795275.098425 23.4251969c.098425 16.8307087 0 23.8188976-.196851 24.8031496-.787401 2.7559055-2.066929 3.4448819-6.791338 4.2322835-1.377953.1968504-1.377953.1968504-1.377953 1.9685039v1.7716535h13.976378 13.877953v-1.7716535c0-1.8700787.19685-1.7716535-2.952756-2.2637795-2.755906-.492126-3.740158-1.0826772-4.527559-2.9527559-.787402-1.5748032-.787402-2.0669292-.787402-11.0236221v-9.3503937l14.862205-.0984252h14.96063l-.098425 9.5472441c-.098426 8.0708662-.196851 9.8425197-.688977 10.9251969-.787401 1.5748031-2.362204 2.6574803-4.330708 2.9527559-3.543307.492126-3.346457.3937008-3.346457 2.2637795v1.7716535h13.877953 13.877952v-1.7716535c0-1.7716535 0-1.7716535-1.279527-1.9685039-4.429134-.7874016-5.314961-1.1811024-6.299213-3.2480315-.590551-1.2795276-.688976-2.5590552-.787401-23.8188977-.098425-24.9015748 0-25.6889763 1.870078-27.5590551.984252-.984252 1.574804-1.1811024 3.838583-1.5748031l2.65748-.3937008v-1.8700788-1.9685039h-13.877952-13.877953v1.8700787 1.8700788l2.362205.492126c3.444882.4921259 4.133858.9842519 5.019685 2.8543307.787401 1.4763779.885826 2.0669291.984252 11.023622l.098425 9.4488189h-14.96063-15.059055v-8.0708661c0-13.3858268.492126-14.5669292 6.791338-15.4527559l1.673229-.1968504v-1.8700788-1.9685039h-13.681103c-7.480315 0-13.779527.0984252-13.877952.2952756z"/><path d="m0 108.464567v7.38189h200 200v-7.38189-7.38189h-200-200z"/><path d="m6.2992126 128.149606c0 1.968504.0984252 2.165355.88582677 2.26378.39370079.098425 1.77165354.393701 3.05118113.590551 3.0511811.492126 4.1338582 1.279528 5.3149606 3.346457l.8858268 1.771653v28.937008c0 28.838583 0 28.838583-.7874016 30.314961-.3937008.688976-1.0826772 1.673228-1.476378 1.968504-.8858267.885826-3.2480314 1.574803-5.70866137 1.870078l-2.16535433.295276v2.165354 2.26378h16.9291339 16.9291338v-2.165354-2.165355l-2.5590551-.492126c-3.6417323-.492126-4.9212598-1.181102-6.003937-2.755905-1.3779528-2.066929-1.6732284-4.92126-1.6732284-15.944882v-9.940945h18.4055119 18.3070866v9.645669c0 10.629921-.2952756 13.779528-1.5748032 15.944882-1.0826771 1.771654-2.5590551 2.46063-6.2007874 3.149606l-2.6574803.393701-.0984252 2.165355-.0984252 2.165354h17.1259843 17.1259842l-.0984252-2.165354-.0984252-2.165355-2.7559055-.492126c-3.6417323-.590551-5.3149606-1.574803-6.2992126-3.543307l-.7874016-1.673228v-29.035433-29.133859l.8858268-1.574803c.984252-1.870078 2.9527559-2.952756 5.9055118-3.346456 3.2480315-.393701 3.2480315-.295276 3.2480315-2.657481v-2.066929h-17.1259842-17.1259843v2.066929c0 2.362205-.0984252 2.26378 3.3464567 2.657481 2.4606299.3937 4.5275591 1.377952 5.4133858 2.559055 1.476378 2.165354 1.5748032 3.051181 1.7716536 14.665354l.0984252 11.220473h-18.3070866-18.4055119l.0984252-11.220473c.1968504-12.204724.2952756-13.090551 2.1653544-15.15748 1.0826771-1.082677 4.035433-2.165355 6.1023622-2.165355 1.6732283 0 1.8700787-.3937 1.8700787-2.559055v-2.066929h-16.9291338-16.9291339z"/><path d="m136.417323 126.870079c-1.082677 2.952756-27.755906 63.582677-28.641732 65.15748-1.377953 2.65748-2.854331 4.330709-4.625985 5.413386-1.476378.885827-5.7086611 1.968504-7.6771651 1.968504h-.9842519v2.263779 2.26378h16.830709 16.929133v-2.165354-2.26378l-2.65748-.393701c-2.165354-.393701-2.952756-.688976-3.740157-1.476378-1.574803-1.574803-1.181103-3.838582 1.771653-10.531496l1.574803-3.543307h13.188977l13.287401.098425 1.870079 4.625985c2.26378 5.31496 2.755906 8.070866 1.574803 9.251968-.787401.787402-2.559055 1.377953-5.019685 1.771654l-1.673228.19685-.098425 2.165354-.098426 2.26378h17.02756 16.929133v-2.26378-2.165354l-1.771653-.19685c-5.413386-.590552-7.874016-1.870079-10.236221-5.216536-.984252-1.279527-6.496063-13.582677-15.846456-34.940945l-14.370079-32.874015-1.574803-.098426c-1.476378-.098425-1.673229 0-1.968504.688977zm6.200787 36.122047 3.937008 9.055118-4.035433.098425c-2.165354.098425-5.905512.098425-8.169291 0l-4.232284-.098425 4.133859-9.251968c2.165354-5.019685 4.133858-9.153544 4.232283-9.055119.098425.196851 1.968504 4.330709 4.133858 9.251969z"/><path d="m154.035433 128.149606c0 2.362205-.098425 2.26378 3.346457 2.657481 4.724409.590551 7.480315 2.559055 10.137795 7.283464.590551 1.279528 7.38189 16.535433 15.059055 34.055118l13.877953 31.889764 1.574803-.098425 1.574803-.098425 13.779528-31.988189c7.677165-17.519685 14.370079-32.677166 14.862204-33.759843 2.362205-4.527559 5.413386-6.692913 10.137796-7.283464 3.444882-.393701 3.346456-.295276 3.346456-2.657481l.000288-2.066929h-17.126272-17.125984l.295276 1.968504c.295275 2.559055.295275 2.65748 1.673228 2.65748.688976 0 1.968504.196851 3.051181.492126 2.46063.688977 3.149606 2.06693 2.559055 4.92126-.19685 1.082677-3.051181 7.972441-6.200787 15.255906-3.149607 7.283464-6.889764 15.846456-8.267717 18.897638-1.279527 3.149606-2.559055 5.610236-2.65748 5.610236-.196851 0-.787402-1.082677-1.279528-2.26378-.492126-1.279527-4.232283-9.744094-8.169291-18.897638-4.035433-9.055118-7.480315-17.322834-7.677165-18.307086-.885827-3.641732.3937-5.11811 4.822834-5.708662l2.066929-.19685.098426-2.26378.098425-2.165354h-16.929134-16.929422z"/><path d="m257.086614 127.952756c-.492126.984252-6.889764 15.748031-14.271653 32.677165-13.976378 32.086614-15.157481 34.448819-18.011811 36.417323-1.377953 1.082677-5.905512 2.362205-7.972441 2.362205h-1.181103v2.263779 2.26378h16.929134 16.929134v-2.26378-2.165354l-1.968504-.295276c-2.362205-.295275-4.625984-1.082677-5.11811-1.968504-.984252-1.870078-.098425-5.807086 2.65748-11.220472l1.279528-2.46063h13.188976 13.090551l1.673229 3.346457c2.65748 5.708661 3.248031 8.661417 2.165354 10.334645-.688976.984252-1.771654 1.377953-4.724409 1.968504l-2.362205.393701-.098425 2.165355-.098426 2.165354h17.125985 17.125984l-.098425-2.165354-.098426-2.165355-2.755905-.393701c-5.216535-.885826-7.57874-2.263779-9.84252-6.102362-.688976-1.082677-7.185039-15.748031-14.566929-32.480315-7.283464-16.830708-13.681102-31.397638-14.173228-32.57874-.885827-1.968504-.885827-1.968504-2.46063-1.968504-1.476378 0-1.476378 0-2.362205 1.870079zm6.988189 35.826772 3.641732 8.267716-3.937007.098425c-2.165355.098425-5.905512.098425-8.267717 0l-4.232283-.098425 3.543307-8.070866c1.968504-4.527559 3.740157-8.661417 4.133858-9.350394l.492126-1.279527.492126 1.082677c.295275.590551 2.165354 4.822835 4.133858 9.350394z"/><path d="m307.677165 128.149606c0 2.066929 0 2.165355.984252 2.362205 5.511811.984252 6.692914 1.673228 7.677166 4.330709.590551 1.574803.688976 3.641732.688976 30.31496v28.838583l-.885827 1.673228c-1.082677 2.066929-2.46063 2.854331-5.905512 3.444882l-2.362204.492126-.098425 2.165355-.098426 2.165354h15.649607 15.748031v-2.165354-2.26378l-2.46063-.393701c-3.444882-.492126-4.92126-1.377953-6.003937-3.444882l-.885827-1.673228-.098425-21.751969-.098425-21.653543.787402.885827c1.771653 2.066929 24.114173 29.822835 28.937008 36.023622 2.755905 3.641732 6.692913 8.858268 8.759842 11.515748l3.543307 4.92126h6.299213 6.299212l.098426-33.956693c.098425-32.086614.098425-33.956693.688976-35.334646.984252-2.165354 2.263779-3.149606 4.92126-3.641732 1.181102-.19685 2.559055-.492126 3.051181-.590551.688976-.098425.787401-.295276.787401-2.26378v-2.066929h-15.748031-15.649606v2.066929c0 2.066929 0 2.165355.984252 2.362205 4.133858.787402 5.511811 1.279528 6.496063 2.26378 1.771653 1.968503 1.771653 1.968503 1.870078 27.65748l.196851 24.015748-.984252-1.181102c-.590551-.492126-10.925197-13.681103-23.129922-29.133859l-22.145669-28.051181h-8.956693-8.956693z"/><path d="m0 221.555118v7.480315h200 200v-7.480315-7.38189h-200-200z"/></g></svg>

<?xml version="1.0" encoding="UTF-8"?>
<svg width="400px" height="230px" viewBox="0 0 400 230" version="1.1" xmlns="http://www.w3.org/2000/svg" xmlns:xlink="http://www.w3.org/1999/xlink">
    <!-- Generator: Sketch 52.4 (67378) - http://www.bohemiancoding.com/sketch -->
    <title>havan@1x</title>
    <desc>Created with Sketch.</desc>
    <g id="Page-1" stroke="none" stroke-width="1" fill="none" fill-rule="evenodd">
        <g id="havan" fill="#E3E8F0">
            <path d="M187.30315,0.295275591 C153.346457,2.75590551 124.901575,12.8937008 110.826772,27.4606299 C104.527559,33.9566929 101.771654,39.9606299 101.771654,47.1456693 C101.673228,67.3228346 128.543307,85.9251969 167.716535,93.1102362 C179.330709,95.1771654 187.69685,95.8661417 201.377953,95.8661417 C215.255906,95.9645669 223.129921,95.2755906 235.03937,93.1102362 C260.925197,88.3858268 283.070866,77.9527559 293.799213,65.5511811 C301.771654,56.2992126 303.346457,46.8503937 298.523622,37.1062992 C289.074803,17.8149606 255.807087,3.0511811 215.354331,0.295275591 C209.448819,-0.0984251969 193.011811,-0.0984251969 187.30315,0.295275591 Z M212.007874,4.52755906 C247.933071,6.69291339 277.559055,18.3070866 288.582677,34.5472441 C291.535433,38.7795276 292.814961,43.011811 292.814961,47.6377953 C292.814961,54.3307087 290.354331,59.7440945 284.448819,65.9448819 C264.96063,86.2204724 217.61811,96.4566929 175,89.7637795 C148.622047,85.6299213 125.984252,75.1968504 115.846457,62.5984252 C111.909449,57.7755906 109.645669,52.1653543 109.645669,47.5393701 C109.645669,45.2755906 110.629921,40.9448819 111.712598,38.484252 C116.830709,27.0669291 131.397638,17.2244094 152.559055,10.8267717 C169.783465,5.61023622 191.929134,3.34645669 212.007874,4.52755906 Z" id="Shape"></path>
            <path d="M167.322835,16.0433071 C167.125984,16.1417323 167.027559,16.9291339 167.027559,17.9133858 L167.027559,19.488189 L169.488189,19.980315 C172.73622,20.4724409 173.622047,20.9645669 174.507874,22.4409449 L175.295276,23.7204724 L175.393701,47.1456693 C175.492126,63.976378 175.393701,70.9645669 175.19685,71.9488189 C174.409449,74.7047244 173.129921,75.3937008 168.405512,76.1811024 C167.027559,76.3779528 167.027559,76.3779528 167.027559,78.1496063 L167.027559,79.9212598 L181.003937,79.9212598 L194.88189,79.9212598 L194.88189,78.1496063 C194.88189,76.2795276 195.07874,76.3779528 191.929134,75.8858268 C189.173228,75.3937008 188.188976,74.8031496 187.401575,72.9330709 C186.614173,71.3582677 186.614173,70.8661417 186.614173,61.9094488 L186.614173,52.5590551 L201.476378,52.4606299 L216.437008,52.4606299 L216.338583,62.007874 C216.240157,70.0787402 216.141732,71.8503937 215.649606,72.9330709 C214.862205,74.507874 213.287402,75.5905512 211.318898,75.8858268 C207.775591,76.3779528 207.972441,76.2795276 207.972441,78.1496063 L207.972441,79.9212598 L221.850394,79.9212598 L235.728346,79.9212598 L235.728346,78.1496063 C235.728346,76.3779528 235.728346,76.3779528 234.448819,76.1811024 C230.019685,75.3937008 229.133858,75 228.149606,72.9330709 C227.559055,71.6535433 227.46063,70.3740157 227.362205,49.1141732 C227.26378,24.2125984 227.362205,23.4251969 229.232283,21.5551181 C230.216535,20.5708661 230.807087,20.3740157 233.070866,19.980315 L235.728346,19.5866142 L235.728346,17.7165354 L235.728346,15.7480315 L221.850394,15.7480315 L207.972441,15.7480315 L207.972441,17.6181102 L207.972441,19.488189 L210.334646,19.980315 C213.779528,20.4724409 214.468504,20.9645669 215.354331,22.8346457 C216.141732,24.3110236 216.240157,24.9015748 216.338583,33.8582677 L216.437008,43.3070866 L201.476378,43.3070866 L186.417323,43.3070866 L186.417323,35.2362205 C186.417323,21.8503937 186.909449,20.6692913 193.208661,19.7834646 L194.88189,19.5866142 L194.88189,17.7165354 L194.88189,15.7480315 L181.200787,15.7480315 C173.720472,15.7480315 167.42126,15.8464567 167.322835,16.0433071 Z" id="Path"></path>
            <polygon id="Path" points="0 108.464567 0 115.846457 200 115.846457 400 115.846457 400 108.464567 400 101.082677 200 101.082677 0 101.082677"></polygon>
            <path d="M6.2992126,128.149606 C6.2992126,130.11811 6.3976378,130.314961 7.18503937,130.413386 C7.57874016,130.511811 8.95669291,130.807087 10.2362205,131.003937 C13.2874016,131.496063 14.3700787,132.283465 15.5511811,134.350394 L16.4370079,136.122047 L16.4370079,165.059055 C16.4370079,193.897638 16.4370079,193.897638 15.6496063,195.374016 C15.2559055,196.062992 14.5669291,197.047244 14.1732283,197.34252 C13.2874016,198.228346 10.9251969,198.917323 8.46456693,199.212598 L6.2992126,199.507874 L6.2992126,201.673228 L6.2992126,203.937008 L23.2283465,203.937008 L40.1574803,203.937008 L40.1574803,201.771654 L40.1574803,199.606299 L37.5984252,199.114173 C33.9566929,198.622047 32.6771654,197.933071 31.5944882,196.358268 C30.2165354,194.291339 29.9212598,191.437008 29.9212598,180.413386 L29.9212598,170.472441 L48.3267717,170.472441 L66.6338583,170.472441 L66.6338583,180.11811 C66.6338583,190.748031 66.3385827,193.897638 65.0590551,196.062992 C63.976378,197.834646 62.5,198.523622 58.8582677,199.212598 L56.2007874,199.606299 L56.1023622,201.771654 L56.003937,203.937008 L73.1299213,203.937008 L90.2559055,203.937008 L90.1574803,201.771654 L90.0590551,199.606299 L87.3031496,199.114173 C83.6614173,198.523622 81.988189,197.53937 81.003937,195.570866 L80.2165354,193.897638 L80.2165354,164.862205 L80.2165354,135.728346 L81.1023622,134.153543 C82.0866142,132.283465 84.0551181,131.200787 87.007874,130.807087 C90.2559055,130.413386 90.2559055,130.511811 90.2559055,128.149606 L90.2559055,126.082677 L73.1299213,126.082677 L56.003937,126.082677 L56.003937,128.149606 C56.003937,130.511811 55.9055118,130.413386 59.3503937,130.807087 C61.8110236,131.200787 63.8779528,132.185039 64.7637795,133.366142 C66.2401575,135.531496 66.3385827,136.417323 66.5354331,148.031496 L66.6338583,159.251969 L48.3267717,159.251969 L29.9212598,159.251969 L30.019685,148.031496 C30.2165354,135.826772 30.3149606,134.940945 32.1850394,132.874016 C33.2677165,131.791339 36.2204724,130.708661 38.2874016,130.708661 C39.9606299,130.708661 40.1574803,130.314961 40.1574803,128.149606 L40.1574803,126.082677 L23.2283465,126.082677 L6.2992126,126.082677 L6.2992126,128.149606 Z" id="Path"></path>
            <path d="M136.417323,126.870079 C135.334646,129.822835 108.661417,190.452756 107.775591,192.027559 C106.397638,194.685039 104.92126,196.358268 103.149606,197.440945 C101.673228,198.326772 97.4409449,199.409449 95.4724409,199.409449 L94.488189,199.409449 L94.488189,201.673228 L94.488189,203.937008 L111.318898,203.937008 L128.248031,203.937008 L128.248031,201.771654 L128.248031,199.507874 L125.590551,199.114173 C123.425197,198.720472 122.637795,198.425197 121.850394,197.637795 C120.275591,196.062992 120.669291,193.799213 123.622047,187.106299 L125.19685,183.562992 L138.385827,183.562992 L151.673228,183.661417 L153.543307,188.287402 C155.807087,193.602362 156.299213,196.358268 155.11811,197.53937 C154.330709,198.326772 152.559055,198.917323 150.098425,199.311024 L148.425197,199.507874 L148.326772,201.673228 L148.228346,203.937008 L165.255906,203.937008 L182.185039,203.937008 L182.185039,201.673228 L182.185039,199.507874 L180.413386,199.311024 C175,198.720472 172.53937,197.440945 170.177165,194.094488 C169.192913,192.814961 163.681102,180.511811 154.330709,159.153543 L139.96063,126.279528 L138.385827,126.181102 C136.909449,126.082677 136.712598,126.181102 136.417323,126.870079 Z M142.61811,162.992126 L146.555118,172.047244 L142.519685,172.145669 C140.354331,172.244094 136.614173,172.244094 134.350394,172.145669 L130.11811,172.047244 L134.251969,162.795276 C136.417323,157.775591 138.385827,153.641732 138.484252,153.740157 C138.582677,153.937008 140.452756,158.070866 142.61811,162.992126 Z" id="Shape"></path>
            <path d="M154.035433,128.149606 C154.035433,130.511811 153.937008,130.413386 157.38189,130.807087 C162.106299,131.397638 164.862205,133.366142 167.519685,138.090551 C168.110236,139.370079 174.901575,154.625984 182.57874,172.145669 L196.456693,204.035433 L198.031496,203.937008 L199.606299,203.838583 L213.385827,171.850394 C221.062992,154.330709 227.755906,139.173228 228.248031,138.090551 C230.610236,133.562992 233.661417,131.397638 238.385827,130.807087 C241.830709,130.413386 241.732283,130.511811 241.732283,128.149606 L241.732571,126.082677 L224.606299,126.082677 L207.480315,126.082677 L207.775591,128.051181 C208.070866,130.610236 208.070866,130.708661 209.448819,130.708661 C210.137795,130.708661 211.417323,130.905512 212.5,131.200787 C214.96063,131.889764 215.649606,133.267717 215.059055,136.122047 C214.862205,137.204724 212.007874,144.094488 208.858268,151.377953 C205.708661,158.661417 201.968504,167.224409 200.590551,170.275591 C199.311024,173.425197 198.031496,175.885827 197.933071,175.885827 C197.73622,175.885827 197.145669,174.80315 196.653543,173.622047 C196.161417,172.34252 192.42126,163.877953 188.484252,154.724409 C184.448819,145.669291 181.003937,137.401575 180.807087,136.417323 C179.92126,132.775591 181.200787,131.299213 185.629921,130.708661 L187.69685,130.511811 L187.795276,128.248031 L187.893701,126.082677 L170.964567,126.082677 L154.035145,126.082677 L154.035433,128.149606 Z" id="Path"></path>
            <path d="M257.086614,127.952756 C256.594488,128.937008 250.19685,143.700787 242.814961,160.629921 C228.838583,192.716535 227.65748,195.07874 224.80315,197.047244 C223.425197,198.129921 218.897638,199.409449 216.830709,199.409449 L215.649606,199.409449 L215.649606,201.673228 L215.649606,203.937008 L232.57874,203.937008 L249.507874,203.937008 L249.507874,201.673228 L249.507874,199.507874 L247.53937,199.212598 C245.177165,198.917323 242.913386,198.129921 242.42126,197.244094 C241.437008,195.374016 242.322835,191.437008 245.07874,186.023622 L246.358268,183.562992 L259.547244,183.562992 L272.637795,183.562992 L274.311024,186.909449 C276.968504,192.61811 277.559055,195.570866 276.476378,197.244094 C275.787402,198.228346 274.704724,198.622047 271.751969,199.212598 L269.389764,199.606299 L269.291339,201.771654 L269.192913,203.937008 L286.318898,203.937008 L303.444882,203.937008 L303.346457,201.771654 L303.248031,199.606299 L300.492126,199.212598 C295.275591,198.326772 292.913386,196.948819 290.649606,193.110236 C289.96063,192.027559 283.464567,177.362205 276.082677,160.629921 C268.799213,143.799213 262.401575,129.232283 261.909449,128.051181 C261.023622,126.082677 261.023622,126.082677 259.448819,126.082677 C257.972441,126.082677 257.972441,126.082677 257.086614,127.952756 Z M264.074803,163.779528 L267.716535,172.047244 L263.779528,172.145669 C261.614173,172.244094 257.874016,172.244094 255.511811,172.145669 L251.279528,172.047244 L254.822835,163.976378 C256.791339,159.448819 258.562992,155.314961 258.956693,154.625984 L259.448819,153.346457 L259.940945,154.429134 C260.23622,155.019685 262.106299,159.251969 264.074803,163.779528 Z" id="Shape"></path>
            <path d="M307.677165,128.149606 C307.677165,130.216535 307.677165,130.314961 308.661417,130.511811 C314.173228,131.496063 315.354331,132.185039 316.338583,134.84252 C316.929134,136.417323 317.027559,138.484252 317.027559,165.15748 L317.027559,193.996063 L316.141732,195.669291 C315.059055,197.73622 313.681102,198.523622 310.23622,199.114173 L307.874016,199.606299 L307.775591,201.771654 L307.677165,203.937008 L323.326772,203.937008 L339.074803,203.937008 L339.074803,201.771654 L339.074803,199.507874 L336.614173,199.114173 C333.169291,198.622047 331.692913,197.73622 330.610236,195.669291 L329.724409,193.996063 L329.625984,172.244094 L329.527559,150.590551 L330.314961,151.476378 C332.086614,153.543307 354.429134,181.299213 359.251969,187.5 C362.007874,191.141732 365.944882,196.358268 368.011811,199.015748 L371.555118,203.937008 L377.854331,203.937008 L384.153543,203.937008 L384.251969,169.980315 C384.350394,137.893701 384.350394,136.023622 384.940945,134.645669 C385.925197,132.480315 387.204724,131.496063 389.862205,131.003937 C391.043307,130.807087 392.42126,130.511811 392.913386,130.413386 C393.602362,130.314961 393.700787,130.11811 393.700787,128.149606 L393.700787,126.082677 L377.952756,126.082677 L362.30315,126.082677 L362.30315,128.149606 C362.30315,130.216535 362.30315,130.314961 363.287402,130.511811 C367.42126,131.299213 368.799213,131.791339 369.783465,132.775591 C371.555118,134.744094 371.555118,134.744094 371.653543,160.433071 L371.850394,184.448819 L370.866142,183.267717 C370.275591,182.775591 359.940945,169.586614 347.73622,154.133858 L325.590551,126.082677 L316.633858,126.082677 L307.677165,126.082677 L307.677165,128.149606 Z" id="Path"></path>
            <polygon id="Path" points="0 221.555118 0 229.035433 200 229.035433 400 229.035433 400 221.555118 400 214.173228 200 214.173228 0 214.173228"></polygon>
        </g>
    </g>
</svg>
